design/source/assets/icons/twitter.svg

<svg width="25" height="20" viewBox="0 0 25 20" fill="none" xmlns="http://www.w3.org/2000/svg">
<path d="M0 17.5934C2.60338 17.8055 4.93679 17.2848 6.96164 15.8C6.19027 15.4721 5.39961 15.2021 4.70537 14.7972C3.8183 14.2765 3.18191 13.4858 2.79623 12.5023C2.66124 12.1552 2.73837 12.0202 3.12406 12.0395C3.52903 12.0588 3.95329 12.0395 4.37754 11.9624C4.08828 11.8274 3.77973 11.7117 3.49046 11.5381C1.88986 10.6125 1.00278 9.20471 0.925648 7.31485C0.906363 6.98702 1.09921 7.02558 1.31133 7.10272C1.77416 7.257 2.23698 7.43055 2.73837 7.54626C0.809942 5.57926 0.462824 3.40013 1.63917 0.816031C4.37754 3.99794 7.67516 5.81067 11.8213 6.11922C11.8213 5.55997 11.7827 5.05858 11.8213 4.57647C12.1491 1.66454 14.5404 -0.244607 17.4716 0.0253736C18.4551 0.121795 19.3807 0.41106 20.075 1.12458C20.4992 1.54884 20.9235 1.56812 21.4056 1.35599C22.0227 1.1053 22.6398 0.835315 23.2762 0.584619C23.4112 0.526766 23.5269 0.488197 23.7776 0.391776C23.5462 1.51027 22.9098 2.24307 22.177 2.89874C22.1963 2.93731 22.2155 2.99516 22.2348 3.03373C22.9483 2.8216 23.6619 2.62876 24.3754 2.41663C24.3947 2.4552 24.4332 2.49377 24.4525 2.51305C24.3368 2.68661 24.2211 2.87945 24.0861 3.03373C23.5269 3.63154 22.9676 4.22936 22.3698 4.7886C22.0998 5.0393 21.9648 5.27071 21.9648 5.63711C22.042 8.68404 21.097 11.4224 19.4 13.9101C17.2402 17.0727 14.2897 19.059 10.51 19.734C6.96164 20.3703 3.5676 19.8882 0.424255 18.0369C0.308549 17.9791 0.212128 17.9019 0.0964216 17.8248C0.0771373 17.8055 0.0771373 17.7477 0 17.5934Z" fill="#3A2F3C"/>
</svg>

<?xml version="1.0" encoding="utf-8"?>
<!-- Generator: Adobe Illustrator 23.0.4, SVG Export Plug-In . SVG Version: 6.00 Build 0)  -->
<svg version="1.1" id="Ebene_1" xmlns="http://www.w3.org/2000/svg" xmlns:xlink="http://www.w3.org/1999/xlink" x="0px" y="0px"
	 viewBox="0 0 25 20" style="enable-background:new 0 0 25 20;" xml:space="preserve">
<path d="M0,17.6c2.6,0.2,4.9-0.3,7-1.8c-0.8-0.3-1.6-0.6-2.3-1c-0.9-0.5-1.5-1.3-1.9-2.3C2.7,12.2,2.7,12,3.1,12
	c0.4,0,0.8,0,1.3-0.1c-0.3-0.1-0.6-0.3-0.9-0.4C1.9,10.6,1,9.2,0.9,7.3C0.9,7,1.1,7,1.3,7.1c0.5,0.2,0.9,0.3,1.4,0.4
	c-1.9-2-2.3-4.1-1.1-6.7c2.7,3.2,6,5,10.2,5.3c0-0.6,0-1.1,0-1.5c0.3-2.9,2.7-4.8,5.7-4.6c1,0.1,1.9,0.4,2.6,1.1
	c0.4,0.4,0.8,0.4,1.3,0.2c0.6-0.3,1.2-0.5,1.9-0.8c0.1-0.1,0.3-0.1,0.5-0.2c-0.2,1.1-0.9,1.9-1.6,2.5c0,0,0,0.1,0.1,0.1
	c0.7-0.2,1.4-0.4,2.1-0.6c0,0,0.1,0.1,0.1,0.1c-0.1,0.2-0.2,0.4-0.4,0.5c-0.6,0.6-1.1,1.2-1.7,1.8C22.1,5,22,5.3,22,5.6
	c0.1,3-0.9,5.8-2.6,8.3c-2.2,3.2-5.1,5.1-8.9,5.8C7,20.4,3.6,19.9,0.4,18c-0.1-0.1-0.2-0.1-0.3-0.2C0.1,17.8,0.1,17.7,0,17.6z"/>
</svg>
